GroupAssignment2CBS/res/luts/warm.cube
#Created by: Adobe Photoshop Export Color Lookup Plugin
TITLE "WARM"
#LUT size
LUT_3D_SIZE 32
#data domain
DOMAIN_MIN 0.0 0.0 0.0
DOMAIN_MAX 1.0 1.0 1.0
#LUT data points
0.000000 0.000000 0.000000
0.018768 0.000000 0.000000
0.040985 0.000000 0.000000
0.066620 0.000000 0.000000
0.092560 0.000000 0.000000
0.118073 0.000000 0.000000
0.144196 0.000000 0.000000
0.170319 0.000000 0.000000
0.196136 0.000000 0.000000
0.221680 0.000000 0.000000
0.247528 0.000000 0.000000
0.273590 0.000000 0.000000
0.299500 0.000000 0.000000
0.325165 0.000000 0.000000
0.351044 0.000000 0.000000
0.376953 0.000000 0.000000
0.402893 0.000000 0.000000
0.428650 0.000000 0.000000
0.454620 0.000000 0.000000
0.480438 0.000000 0.000000
0.506256 0.000000 0.000000
0.532135 0.000000 0.000000
0.558044 0.000000 0.000000
0.583832 0.000000 0.000000
0.609680 0.000000 0.000000
0.635559 0.000000 0.000000
0.661377 0.000000 0.000000
0.687256 0.000000 0.000000
0.713104 0.000000 0.000000
0.738983 0.000000 0.000000
0.764862 0.000000 0.000000
0.790710 0.000000 0.000000
0.004028 0.013794 0.000000
0.023193 0.012787 0.000000
0.044647 0.010956 0.000000
0.069489 0.008789 0.000000
0.094635 0.006073 0.000000
0.120270 0.002289 0.000000
0.145630 0.000000 0.000000
0.171448 0.000000 0.000000
0.196838 0.000000 0.000000
0.222717 0.000000 0.000000
0.248322 0.000000 0.000000
0.274292 0.000000 0.000000
0.299927 0.000000 0.000000
0.325867 0.000000 0.000000
0.351624 0.000000 0.000000
0.377411 0.000000 0.000000
0.403351 0.000000 0.000000
0.429077 0.000000 0.000000
0.454987 0.000000 0.000000
0.480774 0.000000 0.000000
0.506683 0.000000 0.000000
0.532440 0.000000 0.000000
0.558289 0.000000 0.000000
0.584106 0.000000 0.000000
0.609955 0.000000 0.000000
0.635834 0.000000 0.000000
0.661621 0.000000 0.000000
0.687531 0.000000 0.000000
0.713379 0.000000 0.000000
0.739166 0.000000 0.000000
0.765045 0.000000 0.000000
0.790894 0.000000 0.000000
0.008942 0.029297 0.000000
0.027710 0.027893 0.000000
0.049103 0.026550 0.000000
0.072754 0.024506 0.000000
0.097229 0.021759 0.000000
0.122314 0.017975 0.000000
0.147308 0.013885 0.000000
0.172546 0.008209 0.000000
0.198059 0.002045 0.000000
0.223663 0.000000 0.000000
0.249298 0.000000 0.000000
0.274933 0.000000 0.000000
0.300720 0.000000 0.000000
0.326447 0.000000 0.000000
0.352203 0.000000 0.000000
0.377991 0.000000 0.000000
0.403687 0.000000 0.000000
0.429565 0.000000 0.000000
0.455353 0.000000 0.000000
0.481110 0.000000 0.000000
0.506927 0.000000 0.000000
0.532745 0.000000 0.000000
0.558563 0.000000 0.000000
0.584473 0.000000 0.000000
0.610260 0.000000 0.000000
0.636139 0.000000 0.000000
0.661926 0.000000 0.000000
0.687775 0.000000 0.000000
0.713623 0.000000 0.000000
0.739441 0.000000 0.000000
0.765289 0.000000 0.000000
0.791107 0.000000 0.000000
0.015656 0.051117 0.000000
0.034882 0.050293 0.000000
0.054688 0.048767 0.000000
0.076569 0.047607 0.000000
0.100555 0.044403 0.000000
0.124329 0.041901 0.000000
0.149628 0.036713 0.000000
0.174652 0.031433 0.000000
0.199585 0.025665 0.000000
0.225128 0.018097 0.000000
0.250549 0.009705 0.000000
0.276306 0.000061 0.000000
0.301727 0.000000 0.000000
0.327545 0.000000 0.000000
0.353058 0.000000 0.000000
0.378784 0.000000 0.000000
0.404510 0.000000 0.000000
0.430237 0.000000 0.000000
0.456085 0.000000 0.000000
0.481812 0.000000 0.000000
0.507599 0.000000 0.000000
0.533295 0.000000 0.000000
0.559143 0.000000 0.000000
0.584900 0.000000 0.000000
0.610718 0.000000 0.000000
0.636536 0.000000 0.000000
0.662323 0.000000 0.000000
0.688141 0.000000 0.000000
0.713928 0.000000 0.000000
0.739777 0.000000 0.000000
0.765625 0.000000 0.000000
0.791412 0.000000 0.000000
0.023865 0.074066 0.000000
0.043060 0.073425 0.000000
0.062073 0.072021 0.000000
0.081970 0.070923 0.000000
0.104584 0.069092 0.000000
0.128326 0.066376 0.000000
0.152374 0.063446 0.000000
0.177032 0.059631 0.000000
0.202087 0.054077 0.000000
0.227325 0.047638 0.000000
0.252380 0.040680 0.000000
0.277710 0.031219 0.000000
0.303223 0.020569 0.000000
0.328705 0.009094 0.000000
0.354187 0.000000 0.000000
0.379791 0.000000 0.000000
0.405518 0.000000 0.000000
0.431213 0.000000 0.000000
0.456848 0.000000 0.000000
0.482544 0.000000 0.000000
0.508331 0.000000 0.000000
0.533997 0.000000 0.000000
0.559753 0.000000 0.000000
0.585480 0.000000 0.000000
0.611328 0.000000 0.000000
0.637054 0.000000 0.000000
0.662811 0.000000 0.000000
0.688629 0.000000 0.000000
0.714417 0.000000 0.000000
0.740173 0.000000 0.000000
0.766022 0.000000 0.000000
0.791840 0.000000 0.000000
0.035461 0.096710 0.000000
0.053741 0.095825 0.000000
0.069458 0.095337 0.000000
0.088623 0.094238 0.000000
0.110046 0.092773 0.000000
0.133087 0.090302 0.000000
0.156403 0.088043 0.000000
0.180450 0.085114 0.000000
0.204926 0.081482 0.000000
0.229492 0.076996 0.000000
0.254700 0.071503 0.000000
0.279816 0.065063 0.000000
0.304993 0.057587 0.000000
0.330414 0.047546 0.000000
0.355682 0.036041 0.000000
0.381226 0.021820 0.000000
0.406769 0.006927 0.000000
0.432220 0.000000 0.000000
0.457947 0.000000 0.000000
0.483582 0.000000 0.000000
0.509277 0.000000 0.000000
0.534912 0.000000 0.000000
0.560638 0.000000 0.000000
0.586304 0.000000 0.000000
0.612000 0.000000 0.000000
0.637756 0.000000 0.000000
0.663513 0.000000 0.000000
0.689301 0.000000 0.000000
0.715027 0.000000 0.000000
0.740753 0.000000 0.000000
0.766602 0.000000 0.000000
0.792358 0.000000 0.000000
0.049561 0.119080 0.000000
0.063812 0.118805 0.000000
0.078949 0.117889 0.000000
0.096222 0.117310 0.000000
0.116638 0.115814 0.000000
0.138397 0.114136 0.000000
0.160858 0.112335 0.000000
0.184357 0.109985 0.000000
0.208496 0.106750 0.000000
0.232513 0.103638 0.000000
0.257385 0.099365 0.000000
0.282196 0.094604 0.000000
0.307281 0.088806 0.000000
0.332245 0.082520 0.000000
0.357483 0.074890 0.000000
0.382874 0.065338 0.000000
0.408295 0.054047 0.000000
0.433716 0.039215 0.000000
0.459320 0.021179 0.000000
0.484833 0.002502 0.000000
0.510315 0.000000 0.000000
0.536011 0.000000 0.000000
0.561676 0.000000 0.000000
0.587280 0.000000 0.000000
0.612946 0.000000 0.000000
0.638611 0.000000 0.000000
0.664398 0.000000 0.000000
0.690063 0.000000 0.000000
0.715820 0.000000 0.000000
0.741577 0.000000 0.000000
0.767273 0.000000 0.000000
0.793030 0.000000 0.000000
0.063354 0.141693 0.000000
0.075989 0.141205 0.000000
0.089050 0.140717 0.000000
0.105194 0.139923 0.000000
0.123932 0.138947 0.000000
0.144226 0.137695 0.000000
0.165863 0.136139 0.000000
0.188843 0.133972 0.000000
0.212280 0.131592 0.000000
0.236176 0.128906 0.000000
0.260406 0.125610 0.000000
0.284882 0.121765 0.000000
0.309753 0.117249 0.000000
0.334656 0.112305 0.000000
0.359680 0.106567 0.000000
0.384888 0.099670 0.000000
0.410187 0.092041 0.000000
0.435455 0.082672 0.000000
0.460815 0.071716 0.000000
0.486237 0.058380 0.000000
0.511810 0.040466 0.000000
0.537262 0.019409 0.000000
0.562836 0.000000 0.000000
0.588379 0.000000 0.000000
0.614075 0.000000 0.000000
0.639740 0.000000 0.000000
0.665344 0.000000 0.000000
0.690948 0.000000 0.000000
0.716675 0.000000 0.000000
0.742401 0.000000 0.000000
0.768066 0.000000 0.000000
0.793854 0.000000 0.000000
0.076813 0.164337 0.000000
0.087555 0.164154 0.000000
0.099548 0.163513 0.000000
0.114349 0.162872 0.000000
0.131836 0.162018 0.000000
0.151093 0.160919 0.000000
0.172211 0.159485 0.000000
0.193909 0.157990 0.000000
0.217163 0.155640 0.000000
0.240234 0.153473 0.000000
0.264191 0.150482 0.000000
0.288208 0.147583 0.000000
0.312714 0.143860 0.000000
0.337372 0.139740 0.000000
0.362274 0.134949 0.000000
0.387207 0.129791 0.000000
0.412384 0.123535 0.000000
0.437439 0.116913 0.000000
0.462677 0.109070 0.000000
0.488068 0.099945 0.000000
0.513367 0.089691 0.000000
0.538879 0.076660 0.000000
0.564270 0.061462 0.000000
0.589722 0.041046 0.000000
0.615356 0.014771 0.000000
0.640961 0.000000 0.000000
0.666504 0.000000 0.000000
0.692108 0.000000 0.000000
0.717743 0.000000 0.000000
0.743408 0.000000 0.000000
0.769043 0.000000 0.000000
0.794739 0.000000 0.000000
0.090271 0.187012 0.000000
0.100037 0.186615 0.000000
0.110626 0.186249 0.000000
0.124146 0.185699 0.000000
0.140015 0.185059 0.000000
0.158600 0.184021 0.000000
0.178528 0.182861 0.000000
0.199890 0.181244 0.000000
0.222076 0.179535 0.000000
0.244995 0.177399 0.000000
0.268311 0.175049 0.000000
0.291962 0.172546 0.000000
0.316132 0.169403 0.000000
0.340485 0.165955 0.000000
0.365143 0.161957 0.000000
0.389832 0.157684 0.000000
0.414673 0.152710 0.000000
0.439728 0.147278 0.000000
0.464813 0.141083 0.000000
0.489960 0.134216 0.000000
0.515289 0.126129 0.000000
0.540527 0.117401 0.000000
0.565918 0.107208 0.000000
0.591309 0.095306 0.000000
0.616852 0.080597 0.000000
0.642365 0.062531 0.000000
0.667847 0.038422 0.000000
0.693390 0.007874 0.000000
0.718964 0.000000 0.000000
0.744568 0.000000 0.000000
0.770142 0.000000 0.000000
0.795837 0.000000 0.000000
0.103729 0.209534 0.000000
0.112183 0.209381 0.000000
0.121979 0.208893 0.000000
0.134430 0.208405 0.000000
0.149658 0.207733 0.000000
0.167114 0.206848 0.000000
0.186035 0.205841 0.000000
0.206207 0.204681 0.000000
0.227905 0.203094 0.000000
0.250000 0.201294 0.000000
0.273071 0.199127 0.000000
0.296356 0.196808 0.000000
0.320160 0.194092 0.000000
0.343994 0.191223 0.000000
0.368286 0.187958 0.000000
0.392822 0.184143 0.000000
0.417572 0.179840 0.000000
0.442291 0.175354 0.000000
0.467316 0.170135 0.000000
0.492310 0.164520 0.000000
0.517334 0.158386 0.000000
0.542603 0.151154 0.000000
0.567871 0.143341 0.000000
0.593170 0.134521 0.000000
0.618500 0.124359 0.000000
0.643951 0.112793 0.000000
0.669434 0.099213 0.000000
0.694885 0.082703 0.000000
0.720398 0.062103 0.000000
0.745880 0.033234 0.000000
0.771454 0.000000 0.000000
0.797028 0.000000 0.000000
0.117554 0.232117 0.000000
0.125092 0.231964 0.000000
0.133789 0.231689 0.000000
0.145416 0.231079 0.000000
0.159180 0.230560 0.000000
0.175659 0.229736 0.000000
0.193726 0.228882 0.000000
0.213348 0.227783 0.000000
0.234222 0.226288 0.000000
0.255829 0.224762 0.000000
0.278107 0.222961 0.000000
0.300934 0.220917 0.000000
0.324341 0.218506 0.000000
0.347992 0.215912 0.000000
0.371979 0.213043 0.000000
0.396240 0.209747 0.000000
0.420563 0.206329 0.000000
0.445251 0.202179 0.000000
0.469910 0.197998 0.000000
0.494812 0.193054 0.000000
0.519775 0.187836 0.000000
0.544800 0.181885 0.000000
0.569946 0.175507 0.000000
0.595123 0.168457 0.000000
0.620453 0.160370 0.000000
0.645782 0.151550 0.000000
0.671112 0.141785 0.000000
0.696472 0.130798 0.000000
0.721863 0.117981 0.000000
0.747406 0.102539 0.000000
0.772858 0.084229 0.000000
0.798401 0.060455 0.000000
0.130920 0.254822 0.000000
0.137970 0.254547 0.000000
0.145874 0.254272 0.000000
0.156464 0.253876 0.000000
0.169617 0.253357 0.000000
0.184845 0.252716 0.000000
0.202240 0.251862 0.000000
0.220947 0.250763 0.000000
0.241180 0.249512 0.000000
0.261932 0.248260 0.000000
0.283630 0.246613 0.000000
0.306030 0.244751 0.000000
0.328979 0.242645 0.000000
0.352264 0.240326 0.000000
0.375916 0.237823 0.000000
0.399872 0.234924 0.000000
0.424133 0.231659 0.000000
0.448395 0.228271 0.000000
0.473022 0.224365 0.000000
0.497681 0.220276 0.000000
0.522430 0.215668 0.000000
0.547363 0.210693 0.000000
0.572388 0.205109 0.000000
0.597382 0.199310 0.000000
0.622528 0.192749 0.000000
0.647766 0.185577 0.000000
0.672974 0.177765 0.000000
0.698273 0.168945 0.000000
0.723633 0.159271 0.000000
0.749023 0.148376 0.000000
0.774475 0.135956 0.000000
0.799957 0.121521 0.000000
0.144531 0.277344 0.000000
0.151093 0.277191 0.000000
0.158203 0.276886 0.000000
0.167725 0.276672 0.000000
0.180237 0.276062 0.000000
0.194550 0.275452 0.000000
0.211151 0.274658 0.000000
0.229126 0.273773 0.000000
0.248291 0.272614 0.000000
0.268585 0.271423 0.000000
0.289734 0.269958 0.000000
0.311768 0.268219 0.000000
0.334106 0.266388 0.000000
0.356995 0.264343 0.000000
0.380280 0.262054 0.000000
0.403961 0.259460 0.000000
0.427856 0.256683 0.000000
0.451935 0.253540 0.000000
0.476227 0.250153 0.000000
0.500763 0.246460 0.000000
0.525391 0.242493 0.000000
0.550110 0.238098 0.000000
0.574860 0.233459 0.000000
0.599854 0.228271 0.000000
0.624878 0.222626 0.000000
0.649933 0.216705 0.000000
0.675079 0.209961 0.000000
0.700317 0.202728 0.000000
0.725555 0.194824 0.000000
0.750885 0.186127 0.000000
0.776245 0.176453 0.000000
0.801605 0.165894 0.000000
0.157898 0.299957 0.000000
0.163910 0.299805 0.000000
0.170776 0.299500 0.000000
0.179626 0.299286 0.000000
0.191101 0.298859 0.000000
0.204651 0.298309 0.000000
0.220520 0.297485 0.000000
0.237457 0.296722 0.000000
0.256012 0.295715 0.000000
0.275818 0.294495 0.000000
0.296356 0.293182 0.000000
0.317657 0.291687 0.000000
0.339600 0.290070 0.000000
0.362061 0.288208 0.000000
0.384918 0.286102 0.000000
0.408264 0.283752 0.000000
0.431915 0.281250 0.000000
0.455811 0.278381 0.000000
0.479858 0.275360 0.000000
0.504089 0.272095 0.000000
0.528503 0.268585 0.000000
0.553009 0.264801 0.000000
0.577728 0.260498 0.000000
0.602570 0.255920 0.000000
0.627441 0.251007 0.000000
0.652313 0.245880 0.000000
0.677429 0.240021 0.000000
0.702484 0.233917 0.000000
0.727692 0.227112 0.000000
0.752899 0.219818 0.000000
0.778168 0.212036 0.000000
0.803467 0.203278 0.000000
0.171509 0.322601 0.000000
0.177063 0.322449 0.000000
0.183044 0.322205 0.000000
0.191467 0.321899 0.000000
0.202240 0.321503 0.000000
0.215271 0.320953 0.000000
0.229919 0.320374 0.000000
0.246399 0.319611 0.000000
0.264374 0.318604 0.000000
0.283173 0.317657 0.000000
0.303314 0.316406 0.000000
0.324097 0.315002 0.000000
0.345459 0.313477 0.000000
0.367676 0.311737 0.000000
0.390045 0.309937 0.000000
0.413025 0.307770 0.000000
0.436401 0.305420 0.000000
0.459869 0.302979 0.000000
0.483704 0.300293 0.000000
0.507751 0.297272 0.000000
0.531982 0.294067 0.000000
0.556305 0.290558 0.000000
0.580811 0.286804 0.000000
0.605408 0.282837 0.000000
0.630157 0.278442 0.000000
0.654999 0.273743 0.000000
0.679871 0.268768 0.000000
0.704895 0.263336 0.000000
0.729980 0.257416 0.000000
0.755035 0.251190 0.000000
0.780243 0.244354 0.000000
0.805420 0.237152 0.000000
0.184998 0.345245 0.000000
0.190125 0.345123 0.000000
0.196045 0.344818 0.000000
0.203613 0.344604 0.000000
0.213684 0.344238 0.000000
0.225983 0.343719 0.000000
0.239899 0.343201 0.000000
0.255646 0.342499 0.000000
0.272919 0.341583 0.000000
0.291260 0.340637 0.000000
0.310638 0.339539 0.000000
0.330872 0.338257 0.000000
0.351898 0.336823 0.000000
0.373474 0.335266 0.000000
0.395569 0.333496 0.000000
0.418091 0.331635 0.000000
0.441101 0.329468 0.000000
0.464417 0.327179 0.000000
0.487946 0.324677 0.000000
0.511658 0.322021 0.000000
0.535645 0.319153 0.000000
0.559814 0.315979 0.000000
0.584137 0.312592 0.000000
0.608582 0.308990 0.000000
0.633209 0.304962 0.000000
0.657837 0.300781 0.000000
0.682587 0.296356 0.000000
0.707520 0.291412 0.000000
0.732452 0.286285 0.000000
0.757416 0.280792 0.000000
0.782501 0.274841 0.000000
0.807648 0.268463 0.000000
0.198700 0.367798 0.000000
0.203491 0.367676 0.000000
0.208496 0.367554 0.000000
0.216003 0.367218 0.000000
0.225464 0.366882 0.000000
0.237091 0.366425 0.000000
0.250305 0.365906 0.000000
0.265350 0.365265 0.000000
0.281738 0.364441 0.000000
0.299469 0.363586 0.000000
0.318237 0.362579 0.000000
0.338074 0.361359 0.000000
0.358459 0.360046 0.000000
0.379761 0.358582 0.000000
0.401306 0.357056 0.000000
0.423553 0.355255 0.000000
0.446228 0.353241 0.000000
0.469116 0.351227 0.000000
0.492371 0.348969 0.000000
0.515930 0.346436 0.000000
0.539673 0.343781 0.000000
0.563599 0.340881 0.000000
0.587738 0.337799 0.000000
0.611969 0.334503 0.000000
0.636383 0.330902 0.000000
0.660919 0.327087 0.000000
0.685547 0.323090 0.000000
0.710297 0.318756 0.000000
0.735138 0.314026 0.000000
0.759979 0.309143 0.000000
0.784973 0.303802 0.000000
0.809967 0.298218 0.000000
0.212219 0.390442 0.000000
0.216766 0.390259 0.000000
0.221497 0.390137 0.000000
0.228394 0.389893 0.000000
0.237305 0.389587 0.000000
0.248077 0.389191 0.000000
0.260895 0.388702 0.000000
0.275360 0.388000 0.000000
0.290985 0.387329 0.000000
0.308167 0.386444 0.000000
0.326294 0.385590 0.000000
0.345673 0.384369 0.000000
0.365448 0.383270 0.000000
0.386261 0.381897 0.000000
0.407501 0.380402 0.000000
0.429352 0.378723 0.000000
0.451599 0.376984 0.000000
0.474152 0.375061 0.000000
0.497192 0.372925 0.000000
0.520386 0.370667 0.000000
0.543976 0.368134 0.000000
0.567627 0.365570 0.000000
0.591583 0.362640 0.000000
0.615631 0.359619 0.000000
0.639801 0.356445 0.000000
0.664215 0.352936 0.000000
0.688660 0.349274 0.000000
0.713287 0.345245 0.000000
0.737976 0.341064 0.000000
0.762695 0.336609 0.000000
0.787598 0.331818 0.000000
0.812531 0.326691 0.000000
0.225708 0.413055 0.000000
0.229828 0.412964 0.000000
0.234680 0.412720 0.000000
0.241089 0.412506 0.000000
0.249298 0.412262 0.000000
0.259674 0.411835 0.000000
0.271637 0.411407 0.000000
0.285522 0.410767 0.000000
0.300690 0.410126 0.000000
0.317200 0.409363 0.000000
0.334808 0.408478 0.000000
0.353394 0.407471 0.000000
0.372925 0.406311 0.000000
0.393127 0.405060 0.000000
0.413849 0.403778 0.000000
0.435303 0.402222 0.000000
0.457245 0.400513 0.000000
0.479584 0.398712 0.000000
0.502197 0.396729 0.000000
0.525146 0.394653 0.000000
0.548401 0.392395 0.000000
0.571869 0.389923 0.000000
0.595581 0.387329 0.000000
0.619507 0.384491 0.000000
0.643524 0.381470 0.000000
0.667694 0.378296 0.000000
0.692047 0.374908 0.000000
0.716431 0.371307 0.000000
0.741028 0.367401 0.000000
0.765625 0.363373 0.000000
0.790436 0.358948 0.000000
0.815216 0.354401 0.000000
0.239380 0.435669 0.000000
0.243134 0.435516 0.000000
0.247498 0.435394 0.000000
0.253601 0.435181 0.000000
0.261566 0.434906 0.000000
0.271210 0.434570 0.000000
0.282959 0.434052 0.000000
0.295868 0.433563 0.000000
0.310669 0.432922 0.000000
0.326477 0.432190 0.000000
0.343536 0.431335 0.000000
0.361633 0.430450 0.000000
0.380524 0.429382 0.000000
0.400269 0.428253 0.000000
0.420715 0.426910 0.000000
0.441711 0.425537 0.000000
0.463287 0.423920 0.000000
0.485168 0.422302 0.000000
0.507599 0.420441 0.000000
0.530243 0.418488 0.000000
0.553162 0.416351 0.000000
0.576447 0.414093 0.000000
0.599915 0.411682 0.000000
0.623535 0.409088 0.000000
0.647400 0.406311 0.000000
0.671448 0.403320 0.000000
0.695557 0.400208 0.000000
0.719849 0.396851 0.000000
0.744232 0.393311 0.000000
0.768768 0.389557 0.000000
0.793396 0.385559 0.000000
0.818054 0.381378 0.000000
0.252838 0.458252 0.000000
0.256470 0.458160 0.000000
0.260529 0.458008 0.000000
0.266449 0.457764 0.000000
0.274017 0.457520 0.000000
0.283142 0.457184 0.000000
0.294037 0.456787 0.000000
0.306641 0.456329 0.000000
0.320770 0.455658 0.000000
0.336060 0.455017 0.000000
0.352386 0.454285 0.000000
0.370087 0.453369 0.000000
0.388580 0.452332 0.000000
0.407837 0.451263 0.000000
0.427704 0.450104 0.000000
0.448334 0.448761 0.000000
0.469543 0.447266 0.000000
0.491180 0.445679 0.000000
0.513184 0.444000 0.000000
0.535492 0.442169 0.000000
0.558228 0.440216 0.000000
0.581177 0.438080 0.000000
0.604431 0.435822 0.000000
0.627869 0.433411 0.000000
0.651581 0.430786 0.000000
0.675354 0.428040 0.000000
0.699341 0.425110 0.000000
0.723450 0.422058 0.000000
0.747711 0.418732 0.000000
0.772064 0.415283 0.000000
0.796539 0.411591 0.000000
0.821075 0.407745 0.000000
0.266571 0.480835 0.000000
0.269806 0.480774 0.000000
0.273773 0.480591 0.000000
0.279205 0.480408 0.000000
0.286346 0.480164 0.000000
0.295044 0.479858 0.000000
0.305634 0.479462 0.000000
0.317657 0.479004 0.000000
0.330963 0.478516 0.000000
0.345825 0.477814 0.000000
0.361816 0.477081 0.000000
0.378815 0.476257 0.000000
0.396820 0.475311 0.000000
0.415619 0.474304 0.000000
0.435242 0.473114 0.000000
0.455383 0.471924 0.000000
0.476105 0.470551 0.000000
0.497345 0.469086 0.000000
0.519012 0.467468 0.000000
0.541046 0.465759 0.000000
0.563538 0.463867 0.000000
0.586182 0.461914 0.000000
0.609192 0.459808 0.000000
0.632477 0.457520 0.000000
0.655884 0.455109 0.000000
0.679474 0.452576 0.000000
0.703308 0.449829 0.000000
0.727325 0.446869 0.000000
0.751343 0.443878 0.000000
0.775574 0.440643 0.000000
0.799927 0.437195 0.000000
0.824341 0.433624 0.000000
0.280029 0.503448 0.000000
0.283386 0.503296 0.000000
0.286865 0.503235 0.000000
0.292023 0.503052 0.000000
0.298798 0.502838 0.000000
0.307281 0.502502 0.000000
0.317200 0.502167 0.000000
0.328857 0.501678 0.000000
0.341614 0.501190 0.000000
0.355865 0.500610 0.000000
0.371307 0.499908 0.000000
0.387787 0.499146 0.000000
0.405334 0.498260 0.000000
0.423676 0.497284 0.000000
0.442780 0.496246 0.000000
0.462555 0.495056 0.000000
0.482910 0.493744 0.000000
0.503815 0.492371 0.000000
0.525146 0.490875 0.000000
0.546967 0.489227 0.000000
0.569000 0.487549 0.000000
0.591522 0.485626 0.000000
0.614197 0.483673 0.000000
0.637238 0.481537 0.000000
0.660431 0.479248 0.000000
0.683899 0.476837 0.000000
0.707458 0.474304 0.000000
0.731262 0.471619 0.000000
0.755219 0.468719 0.000000
0.779266 0.465729 0.000000
0.803467 0.462524 0.000000
0.827759 0.459137 0.000000
0.293732 0.526031 0.000000
0.296600 0.526001 0.000000
0.299988 0.525848 0.000000
0.304962 0.525726 0.000000
0.311401 0.525513 0.000000
0.319336 0.525238 0.000000
0.329102 0.524811 0.000000
0.339966 0.524445 0.000000
0.352417 0.523956 0.000000
0.366272 0.523346 0.000000
0.381195 0.522705 0.000000
0.397186 0.521942 0.000000
0.414246 0.521088 0.000000
0.432098 0.520203 0.000000
0.450775 0.519226 0.000000
0.470154 0.518066 0.000000
0.490051 0.516907 0.000000
0.510620 0.515564 0.000000
0.531616 0.514130 0.000000
0.553131 0.512604 0.000000
0.574860 0.510986 0.000000
0.597107 0.509186 0.000000
0.619507 0.507355 0.000000
0.642242 0.505371 0.000000
0.665283 0.503204 0.000000
0.688507 0.500977 0.000000
0.711914 0.498566 0.000000
0.735474 0.496063 0.000000
0.759216 0.493408 0.000000
0.783173 0.490509 0.000000
0.807159 0.487549 0.000000
0.831299 0.484406 0.000000
0.307251 0.548645 0.000000
0.309998 0.548584 0.000000
0.313416 0.548431 0.000000
0.317963 0.548340 0.000000
0.324097 0.548126 0.000000
0.331665 0.547882 0.000000
0.340973 0.547485 0.000000
0.351440 0.547119 0.000000
0.363403 0.546661 0.000000
0.376770 0.546082 0.000000
0.391174 0.545471 0.000000
0.406708 0.544769 0.000000
0.423218 0.544006 0.000000
0.440643 0.543152 0.000000
0.458923 0.542175 0.000000
0.477905 0.541107 0.000000
0.497528 0.539978 0.000000
0.517639 0.538727 0.000000
0.538239 0.537445 0.000000
0.559448 0.535919 0.000000
0.580902 0.534393 0.000000
0.602814 0.532776 0.000000
0.625061 0.530945 0.000000
0.647552 0.529053 0.000000
0.670319 0.527039 0.000000
0.693298 0.524963 0.000000
0.716522 0.522675 0.000000
0.739868 0.520294 0.000000
0.763458 0.517761 0.000000
0.787231 0.515076 0.000000
0.811096 0.512329 0.000000
0.835052 0.509369 0.000000
0.320770 0.571259 0.000000
0.323334 0.571228 0.000000
0.326569 0.571075 0.000000
0.331024 0.570923 0.000000
0.336884 0.570740 0.000000
0.344086 0.570496 0.000000
0.352936 0.570160 0.000000
0.362976 0.569824 0.000000
0.374756 0.569305 0.000000
0.387390 0.568848 0.000000
0.401367 0.568268 0.000000
0.416565 0.567566 0.000000
0.432617 0.566864 0.000000
0.449524 0.566010 0.000000
0.467316 0.565125 0.000000
0.485901 0.564117 0.000000
0.505157 0.562988 0.000000
0.524872 0.561859 0.000000
0.545258 0.560547 0.000000
0.566010 0.559204 0.000000
0.587158 0.557770 0.000000
0.608826 0.556152 0.000000
0.630768 0.554474 0.000000
0.652985 0.552704 0.000000
0.675507 0.550812 0.000000
0.698303 0.548767 0.000000
0.721283 0.546661 0.000000
0.744446 0.544434 0.000000
0.767883 0.542023 0.000000
0.791443 0.539520 0.000000
0.815186 0.536865 0.000000
0.839020 0.534088 0.000000
0.334198 0.593903 0.000000
0.336914 0.593781 0.000000
0.339783 0.593719 0.000000
0.343964 0.593597 0.000000
0.349579 0.593384 0.000000
0.356659 0.593140 0.000000
0.364960 0.592865 0.000000
0.374847 0.592468 0.000000
0.385956 0.592041 0.000000
0.398254 0.591553 0.000000
0.411896 0.590973 0.000000
0.426514 0.590332 0.000000
0.442139 0.589661 0.000000
0.458649 0.588898 0.000000
0.476105 0.587982 0.000000
0.494110 0.587097 0.000000
0.512970 0.586029 0.000000
0.532318 0.584961 0.000000
