GroupAssignment2CBS/res/luts/warm.cube
#Created by: Adobe Photoshop Export Color Lookup Plugin
TITLE "WARM"
#LUT size
LUT_3D_SIZE 8
#data domain
#LUT data points
DOMAIN_MIN 0.000000 0.000000 0.000000
DOMAIN_MAX 0.903226 0.903226 0.903226
0.000000 0.000000 0.000000
0.092560 0.000000 0.000000
0.196136 0.000000 0.000000
0.299500 0.000000 0.000000
0.402893 0.000000 0.000000
0.506256 0.000000 0.000000
0.609680 0.000000 0.000000
0.713104 0.000000 0.000000
0.023865 0.074066 0.000000
0.104584 0.069092 0.000000
0.202087 0.054077 0.000000
0.303223 0.020569 0.000000
0.405518 0.000000 0.000000
0.508331 0.000000 0.000000
0.611328 0.000000 0.000000
0.714417 0.000000 0.000000
0.076813 0.164337 0.000000
0.131836 0.162018 0.000000
0.217163 0.155640 0.000000
0.312714 0.143860 0.000000
0.412384 0.123535 0.000000
0.513367 0.089691 0.000000
0.615356 0.014771 0.000000
0.717743 0.000000 0.000000
0.130920 0.254822 0.000000
0.169617 0.253357 0.000000
0.241180 0.249512 0.000000
0.328979 0.242645 0.000000
0.424133 0.231659 0.000000
0.522430 0.215668 0.000000
0.622528 0.192749 0.000000
0.723633 0.159271 0.000000
0.184998 0.345245 0.000000
0.213684 0.344238 0.000000
0.272919 0.341583 0.000000
0.351898 0.336823 0.000000
0.441101 0.329468 0.000000
0.535645 0.319153 0.000000
0.633209 0.304962 0.000000
0.732452 0.286285 0.000000
0.239380 0.435669 0.000000
0.261566 0.434906 0.000000
0.310669 0.432922 0.000000
0.380524 0.429382 0.000000
0.463287 0.423920 0.000000
0.553162 0.416351 0.000000
0.647400 0.406311 0.000000
0.744232 0.393311 0.000000
0.293732 0.526031 0.000000
0.311401 0.525513 0.000000
0.352417 0.523956 0.000000
0.414246 0.521088 0.000000
0.490051 0.516907 0.000000
0.574860 0.510986 0.000000
0.665283 0.503204 0.000000
0.759216 0.493408 0.000000
0.347748 0.616516 0.000000
0.362518 0.615997 0.000000
0.397400 0.614746 0.000000
0.451843 0.612457 0.000000
0.521057 0.609039 0.000000
0.600494 0.604248 0.000000
0.686646 0.597992 0.000000
0.777374 0.590057 0.000000
0.029663 0.000000 0.029083
0.107300 0.000000 0.028778
0.203186 0.000000 0.027069
0.303894 0.000000 0.024261
0.406006 0.000000 0.019592
0.508636 0.000000 0.013550
0.611603 0.000000 0.005859
0.714661 0.000000 0.000000
0.052246 0.071472 0.021423
0.118042 0.066254 0.020691
0.209229 0.050781 0.019440
0.307587 0.016998 0.016174
0.408722 0.000000 0.011902
0.510742 0.000000 0.005798
0.613159 0.000000 0.000000
0.716003 0.000000 0.000000
0.093140 0.163239 0.001434
0.142365 0.160858 0.000702
0.223511 0.154419 0.000000
0.317108 0.142456 0.000000
0.415375 0.122040 0.000000
0.515808 0.087036 0.000000
0.617249 0.010712 0.000000
0.719299 0.000000 0.000000
0.141937 0.254059 0.000000
0.178192 0.252594 0.000000
0.246826 0.248810 0.000000
0.333099 0.241852 0.000000
0.427063 0.230865 0.000000
0.524750 0.214722 0.000000
0.624390 0.191711 0.000000
0.725159 0.158020 0.000000
0.192841 0.344727 0.000000
0.220428 0.343719 0.000000
0.277863 0.341095 0.000000
0.355560 0.336304 0.000000
0.444031 0.328918 0.000000
0.537903 0.318512 0.000000
0.634949 0.304413 0.000000
0.733948 0.285614 0.000000
0.245056 0.435303 0.000000
0.266937 0.434509 0.000000
0.314911 0.432556 0.000000
0.383972 0.428986 0.000000
0.465912 0.423553 0.000000
0.555328 0.415955 0.000000
0.649170 0.405884 0.000000
0.745758 0.392792 0.000000
0.298218 0.525757 0.000000
0.315735 0.525146 0.000000
0.356323 0.523590 0.000000
0.417358 0.520782 0.000000
0.492554 0.516602 0.000000
0.576935 0.510681 0.000000
0.667023 0.502869 0.000000
0.760651 0.493042 0.000000
0.351715 0.616211 0.000000
0.366180 0.615723 0.000000
0.400696 0.614471 0.000000
0.454590 0.612183 0.000000
0.523407 0.608765 0.000000
0.602356 0.604004 0.000000
0.688263 0.597717 0.000000
0.778717 0.589813 0.000000
0.086548 0.000000 0.086792
0.138397 0.000000 0.086639
0.220825 0.000000 0.085663
0.315308 0.000000 0.084045
0.414124 0.000000 0.081268
0.514832 0.000000 0.077576
0.616486 0.000000 0.072784
0.718658 0.000000 0.066071
0.099854 0.064514 0.082367
0.147156 0.058289 0.081970
0.226318 0.041748 0.081177
0.318817 0.006805 0.079132
0.416748 0.000000 0.076508
0.516754 0.000000 0.072723
0.618011 0.000000 0.067596
0.719971 0.000000 0.060516
0.127594 0.160065 0.069824
0.167267 0.157440 0.069397
0.239471 0.151093 0.068146
0.327942 0.138794 0.066132
0.423248 0.117828 0.063080
0.521851 0.081207 0.058594
0.622070 0.000641 0.052063
0.723236 0.000000 0.043762
0.166321 0.252197 0.040771
0.198242 0.250671 0.040070
0.261200 0.246826 0.038788
0.343353 0.239807 0.035461
0.434662 0.228729 0.031128
0.530670 0.212402 0.025177
0.629150 0.189087 0.017609
0.729095 0.154755 0.007629
0.211426 0.343384 0.000000
0.236755 0.342285 0.000000
0.290436 0.339722 0.000000
0.365051 0.334961 0.000000
0.451294 0.327484 0.000000
0.543610 0.317047 0.000000
0.639618 0.302856 0.000000
0.737823 0.283966 0.000000
0.259552 0.434296 0.000000
0.280029 0.433472 0.000000
0.325836 0.431549 0.000000
0.392639 0.427979 0.000000
0.472809 0.422424 0.000000
0.560852 0.414886 0.000000
0.653687 0.404755 0.000000
0.749512 0.391663 0.000000
0.309875 0.524963 0.000000
0.326630 0.524353 0.000000
0.365784 0.522797 0.000000
0.425079 0.520020 0.000000
0.498962 0.515778 0.000000
0.582214 0.509796 0.000000
0.671356 0.502045 0.000000
0.764374 0.492126 0.000000
0.361298 0.615570 0.000000
0.375366 0.615082 0.000000
0.408875 0.613800 0.000000
0.461639 0.611542 0.000000
0.529297 0.608093 0.000000
0.607330 0.603333 0.000000
0.692474 0.597046 0.000000
0.782288 0.589142 0.000000
0.145630 0.000000 0.145569
0.180908 0.000000 0.145294
0.248779 0.000000 0.144653
0.334442 0.000000 0.143677
0.428192 0.000000 0.141998
0.525635 0.000000 0.139832
0.625061 0.000000 0.137085
0.725769 0.000000 0.133392
0.153900 0.050140 0.142670
0.187622 0.042938 0.142426
0.253601 0.023743 0.141937
0.337891 0.000000 0.140778
0.430603 0.000000 0.139191
0.527496 0.000000 0.137024
0.626587 0.000000 0.134186
0.726990 0.000000 0.130432
0.173187 0.154175 0.135406
0.203705 0.151672 0.135132
0.265228 0.144989 0.134460
0.346252 0.132080 0.133392
0.436981 0.109711 0.131775
0.532379 0.069824 0.129425
0.630524 0.000000 0.126221
0.730225 0.000000 0.122375
0.203247 0.248505 0.121094
0.229309 0.247162 0.120758
0.284698 0.243256 0.120239
0.360718 0.236145 0.118866
0.447937 0.224762 0.117035
0.541077 0.208099 0.114410
0.637512 0.184052 0.111084
0.736023 0.148499 0.106506
0.240845 0.340942 0.095978
0.262695 0.339966 0.095581
0.311554 0.337250 0.094971
0.381378 0.332428 0.093201
0.463867 0.324951 0.090942
0.553711 0.314331 0.087616
0.647766 0.300049 0.083221
0.744598 0.280914 0.077240
0.283508 0.432404 0.046814
0.302002 0.431641 0.046112
0.344360 0.429657 0.044495
0.407562 0.426056 0.041870
0.484741 0.420624 0.037628
0.570557 0.412933 0.031494
0.661621 0.402802 0.023468
0.756195 0.389648 0.014160
0.329559 0.523529 0.000000
0.345184 0.522919 0.000000
0.381866 0.521423 0.000000
0.438721 0.518555 0.000000
0.510132 0.514282 0.000000
0.591370 0.508392 0.000000
0.679047 0.500519 0.000000
0.770844 0.490601 0.000000
0.377686 0.614410 0.000000
0.391022 0.613922 0.000000
0.423157 0.612640 0.000000
0.473999 0.610352 0.000000
0.539734 0.606903 0.000000
0.616119 0.602112 0.000000
0.699890 0.595825 0.000000
0.788635 0.587891 0.000000
0.204132 0.000000 0.203949
0.230164 0.000000 0.203857
0.285370 0.000000 0.203430
0.361206 0.000000 0.202728
0.448364 0.000000 0.201569
0.541351 0.000000 0.200073
0.637726 0.000000 0.198181
0.736237 0.000000 0.195709
0.210114 0.023132 0.202026
0.235229 0.015961 0.201843
0.289520 0.000000 0.201538
0.364349 0.000000 0.200714
0.450562 0.000000 0.199646
0.543182 0.000000 0.198181
0.639191 0.000000 0.196259
0.737457 0.000000 0.193756
0.224274 0.144775 0.197083
0.248047 0.142059 0.196899
0.299530 0.134888 0.196472
0.372009 0.120911 0.195740
0.456482 0.096710 0.194641
0.547882 0.048431 0.193115
0.643066 0.000000 0.190979
0.740631 0.000000 0.188416
0.247559 0.243134 0.187683
0.269012 0.241638 0.187500
0.316589 0.237640 0.187164
0.385315 0.230286 0.186279
0.466949 0.218658 0.185120
0.556122 0.201599 0.183441
0.649872 0.176514 0.181366
0.746307 0.138947 0.178650
0.278656 0.337158 0.172577
0.297333 0.336182 0.172333
0.340424 0.333527 0.171936
0.404449 0.328522 0.171021
0.482147 0.321075 0.169739
0.568451 0.310303 0.167938
0.659912 0.295654 0.165649
0.754761 0.276184 0.162659
0.315430 0.429657 0.149231
0.331879 0.428894 0.148956
0.370209 0.426880 0.148376
0.428894 0.423279 0.147430
0.502045 0.417755 0.145935
0.584717 0.410004 0.143860
0.673431 0.399719 0.140991
0.766113 0.386475 0.137390
0.356537 0.521393 0.111725
0.371033 0.520691 0.111450
0.404907 0.519196 0.110626
0.458252 0.516388 0.109314
0.526428 0.512085 0.107330
0.604980 0.506104 0.104462
0.690430 0.498260 0.100525
0.780548 0.488281 0.095764
0.401062 0.612610 0.033844
0.413391 0.612183 0.033447
0.443542 0.610870 0.031708
0.491821 0.608582 0.028900
0.554932 0.605103 0.024200
0.629059 0.600281 0.018250
0.710907 0.593933 0.010681
0.798065 0.585999 0.000824
0.262604 0.000000 0.262451
0.282623 0.000000 0.262299
0.328094 0.000000 0.262054
0.394470 0.000000 0.261475
0.474213 0.000000 0.260681
0.562012 0.000000 0.259583
0.654633 0.000000 0.258148
0.750305 0.000000 0.256317
0.267029 0.000000 0.261017
0.286896 0.000000 0.260895
0.331451 0.000000 0.260559
0.397125 0.000000 0.260040
0.476318 0.000000 0.259277
0.563721 0.000000 0.258118
0.656067 0.000000 0.256622
0.751526 0.000000 0.254883
0.277985 0.131104 0.257324
0.296997 0.127838 0.257202
0.340179 0.119934 0.256866
0.404175 0.104095 0.256317
0.481964 0.074860 0.255463
0.568207 0.011871 0.254303
0.659760 0.000000 0.252869
0.754639 0.000000 0.250977
0.296631 0.235443 0.250458
0.314240 0.233856 0.250305
0.354950 0.229767 0.249939
0.416229 0.222137 0.249420
0.491699 0.210022 0.248596
0.576141 0.192017 0.247406
0.666321 0.165558 0.245819
0.760162 0.124512 0.243958
0.322083 0.332123 0.239685
0.338348 0.330902 0.239563
0.375824 0.328247 0.239197
0.433594 0.323273 0.238617
0.505920 0.315552 0.237762
0.587891 0.304535 0.236542
0.676117 0.289612 0.234863
0.768372 0.269684 0.232880
0.353851 0.425781 0.223907
0.368256 0.425018 0.223846
0.402527 0.423035 0.223480
0.456207 0.419403 0.222870
0.524780 0.413727 0.221832
0.603577 0.405945 0.220490
0.689209 0.395508 0.218781
0.779510 0.382080 0.216553
0.390320 0.518341 0.201569
0.403168 0.517731 0.201385
0.434174 0.516113 0.200958
0.483612 0.513275 0.200256
0.547913 0.508972 0.199188
0.623016 0.502960 0.197723
0.705719 0.495056 0.195679
0.793610 0.484985 0.193268
0.430573 0.610168 0.169098
0.441986 0.609680 0.169006
0.469788 0.608429 0.168488
0.515015 0.606110 0.167633
0.575073 0.602600 0.166229
0.646179 0.597809 0.164368
0.725586 0.591431 0.162048
0.810730 0.583435 0.158936
0.321136 0.000000 0.320953
0.337219 0.000000 0.320892
0.375031 0.000000 0.320648
0.432922 0.000000 0.320251
0.505371 0.000000 0.319550
0.587341 0.000000 0.318665
0.675659 0.000000 0.317566
0.768066 0.000000 0.316132
0.324554 0.000000 0.319824
0.340637 0.000000 0.319733
0.377869 0.000000 0.319550
0.435333 0.000000 0.319061
0.507355 0.000000 0.318420
0.589081 0.000000 0.317566
0.677094 0.000000 0.316437
0.769196 0.000000 0.315002
0.333496 0.110504 0.316925
0.348907 0.106964 0.316803
0.385284 0.097504 0.316559
0.441498 0.077515 0.316132
0.512543 0.035431 0.315521
0.593323 0.000000 0.314636
0.680634 0.000000 0.313416
0.772217 0.000000 0.312012
0.348602 0.225128 0.311554
0.363251 0.223480 0.311432
0.398102 0.219025 0.311249
0.452454 0.210938 0.310760
0.521576 0.198029 0.310120
0.600800 0.178925 0.309204
0.686951 0.149811 0.308044
0.777588 0.102844 0.306580
0.369934 0.325195 0.303284
0.383759 0.324066 0.303192
0.416351 0.321350 0.302917
0.468170 0.316101 0.302490
0.534790 0.308167 0.301819
0.611969 0.296967 0.300873
0.696381 0.281433 0.299652
0.785614 0.260773 0.298157
0.397095 0.420807 0.291565
0.409698 0.420013 0.291443
0.440155 0.417908 0.291168
0.488831 0.414215 0.290680
0.552368 0.408539 0.290009
0.626801 0.400604 0.289032
0.708954 0.390015 0.287689
0.796387 0.376373 0.286041
0.429199 0.514465 0.275391
0.440704 0.513763 0.275269
0.468658 0.512207 0.274963
0.513916 0.509369 0.274445
0.574097 0.504974 0.273743
0.645386 0.498901 0.272675
0.724884 0.490936 0.271240
0.810120 0.480743 0.269592
0.465424 0.606964 0.253662
0.475708 0.606506 0.253510
0.501251 0.605225 0.253174
0.543243 0.602936 0.252625
0.599701 0.599396 0.251831
0.667633 0.594513 0.250641
0.744049 0.588104 0.249115
0.826813 0.580048 0.247192
0.379669 0.000000 0.379486
0.392883 0.000000 0.379395
0.424835 0.000000 0.379181
0.475403 0.000000 0.378845
0.540924 0.000000 0.378357
0.617157 0.000000 0.377625
0.700745 0.000000 0.376678
0.789368 0.000000 0.375549
0.382568 0.000000 0.378510
0.395691 0.000000 0.378479
0.427338 0.000000 0.378265
0.477692 0.000000 0.377960
0.542816 0.000000 0.377380
0.618713 0.000000 0.376678
0.702057 0.000000 0.375763
0.790497 0.000000 0.374603
0.389771 0.078522 0.376160
0.402649 0.073822 0.376068
0.433655 0.060364 0.375854
0.483032 0.028809 0.375519
0.547516 0.000000 0.375000
0.622742 0.000000 0.374298
0.705505 0.000000 0.373383
0.793457 0.000000 0.372192
0.402313 0.211578 0.371796
0.414734 0.209625 0.371765
0.444794 0.204834 0.371552
0.492828 0.196320 0.371216
0.555878 0.182037 0.370636
0.629822 0.160797 0.369904
0.711517 0.127716 0.368988
0.798615 0.067780 0.367798
0.420563 0.316345 0.365173
0.432343 0.315247 0.365082
0.460876 0.312347 0.364929
0.507141 0.307068 0.364502
0.568146 0.298859 0.363983
0.640259 0.287109 0.363251
0.720490 0.270966 0.362305
0.806335 0.249268 0.361053
0.443909 0.414429 0.355835
0.454926 0.413635 0.355743
0.481842 0.411560 0.355530
0.525848 0.407715 0.355164
0.584412 0.401917 0.354614
0.654358 0.393768 0.353851
0.732544 0.383026 0.352814
0.816803 0.368988 0.351593
0.472137 0.509521 0.343262
0.482330 0.508881 0.343140
0.507507 0.507233 0.342987
0.548920 0.504333 0.342529
0.604706 0.499908 0.341980
0.671906 0.493774 0.341156
0.747803 0.485687 0.340149
0.830109 0.475311 0.338806
0.504547 0.603027 0.326782
0.513947 0.602539 0.326691
0.537201 0.601227 0.326447
0.575928 0.598907 0.326050
0.628723 0.595337 0.325439
0.693054 0.590393 0.324585
0.766296 0.583984 0.323425
0.846252 0.575836 0.322021
