GroupAssignment2CBS/res/luts/warm.cube
#Created by: Adobe Photoshop Export Color Lookup Plugin
TITLE "WARM"
#LUT size
LUT_3D_SIZE 5
#data domain
#LUT data points
DOMAIN_MIN 0.000000 0.000000 0.000000
DOMAIN_MAX 0.903226 0.903226 0.903226
0.000000 0.000000 0.000000
0.170319 0.000000 0.000000
0.351044 0.000000 0.000000
0.532135 0.000000 0.000000
0.713104 0.000000 0.000000
0.063354 0.141693 0.000000
0.188843 0.133972 0.000000
0.359680 0.106567 0.000000
0.537262 0.019409 0.000000
0.716675 0.000000 0.000000
0.157898 0.299957 0.000000
0.237457 0.296722 0.000000
0.384918 0.286102 0.000000
0.553009 0.264801 0.000000
0.727692 0.227112 0.000000
0.252838 0.458252 0.000000
0.306641 0.456329 0.000000
0.427704 0.450104 0.000000
0.581177 0.438080 0.000000
0.747711 0.418732 0.000000
0.347748 0.616516 0.000000
0.386688 0.615143 0.000000
0.484863 0.610901 0.000000
0.621490 0.602814 0.000000
0.777374 0.590057 0.000000
0.072479 0.000000 0.072205
0.192444 0.000000 0.071198
0.361389 0.000000 0.067596
0.538361 0.000000 0.060120
0.717438 0.000000 0.047089
0.109161 0.137695 0.057007
0.208923 0.130035 0.055420
0.369690 0.101227 0.051025
0.543488 0.007904 0.041809
0.720917 0.000000 0.025909
0.181946 0.298309 0.000000
0.253448 0.294952 0.000000
0.394318 0.284210 0.000000
0.558899 0.262787 0.000000
0.731812 0.224854 0.000000
0.267761 0.457214 0.000000
0.318665 0.455292 0.000000
0.435944 0.449036 0.000000
0.586731 0.436981 0.000000
0.751740 0.417572 0.000000
0.358154 0.615814 0.000000
0.395874 0.614441 0.000000
0.491852 0.610199 0.000000
0.626556 0.602112 0.000000
0.781158 0.589355 0.000000
0.174957 0.000000 0.174652
0.248505 0.000000 0.174194
0.391388 0.000000 0.172638
0.557190 0.000000 0.169647
0.730499 0.000000 0.164825
0.193329 0.124420 0.168457
0.261292 0.115906 0.167847
0.398987 0.082825 0.166260
0.561951 0.000000 0.163086
0.733978 0.000000 0.158081
0.240692 0.292908 0.146851
0.297150 0.289429 0.146210
0.421417 0.278503 0.144348
0.576904 0.256439 0.140656
0.744629 0.217255 0.135010
0.309052 0.454071 0.093903
0.353180 0.452057 0.093140
0.460083 0.445740 0.090271
0.603668 0.433563 0.084503
0.764099 0.414032 0.074799
0.388519 0.613617 0.000000
0.423004 0.612213 0.000000
0.512848 0.607971 0.000000
0.642151 0.599854 0.000000
0.792877 0.587067 0.000000
0.277222 0.000000 0.277100
0.326477 0.000000 0.276794
0.441223 0.000000 0.275879
0.590393 0.000000 0.274048
0.754395 0.000000 0.271362
0.288574 0.095612 0.273376
0.335754 0.084045 0.273041
0.447784 0.033783 0.272095
0.594910 0.000000 0.270294
0.757690 0.000000 0.267517
0.320740 0.282410 0.261322
0.363098 0.278900 0.261047
0.467316 0.267456 0.259979
0.608826 0.244080 0.258118
0.767914 0.202148 0.255188
0.372620 0.447998 0.236877
0.408722 0.445923 0.236481
0.501709 0.439545 0.235352
0.633850 0.427216 0.233185
0.786652 0.407196 0.229828
0.438751 0.609467 0.192078
0.468750 0.608093 0.191559
0.549500 0.603821 0.190155
0.670166 0.595581 0.187439
0.814453 0.582642 0.183258
0.379669 0.000000 0.379486
0.414917 0.000000 0.379242
0.506622 0.000000 0.378632
0.637451 0.000000 0.377411
0.789368 0.000000 0.375549
0.387421 0.022797 0.376923
0.421997 0.001343 0.376709
0.512054 0.000000 0.376068
0.641602 0.000000 0.374817
0.792480 0.000000 0.372955
0.410767 0.265259 0.368805
0.443115 0.261383 0.368652
0.528809 0.248993 0.367920
0.654205 0.223541 0.366730
0.802155 0.176178 0.364746
0.450562 0.438416 0.353027
0.479553 0.436340 0.352783
0.558502 0.429718 0.352081
0.677124 0.417023 0.350769
0.819855 0.396362 0.348694
0.504547 0.603027 0.326782
0.529907 0.601624 0.326508
0.600739 0.597260 0.325775
0.710571 0.588989 0.324280
0.846252 0.575836 0.322021
